X: 30040
T: Off To California
R: hornpipe
M: 4/4
K: Gmajor
|:DF|"G"GFGB "D"AGED|"G"GBdg "C"e2 df|"G"gfgd "Em"edBG|"Am"ABAG "D"E2 DF|
"G"GFGB "D"AGED|"G"GBdg "C"e2 df|"G"gfgd "Em"edBG|"D"AGEF "G"G2:|
|:df|"Em"gfeg "Bm"fedf|"C"edef "Em"edBd|"G"gfgd "Em"edBG|"Am"ABAG "D"E2 DF|
"G"GFGB "D"AGED|"G"GBdg "C"e2 df|"G"gfgd "Em"edBG|"D"AGEF "G"G2:|

